assets/settings-fill.svg

<svg xmlns="http://www.w3.org/2000/svg" fill="none" viewBox="0 0 28 28">
  <path fill="#2A2238" fill-rule="evenodd" d="M13.5294 0c-1.1046 0-2 .89543-2 2v1.33282c0 .73351-.4877 1.37149-1.1512 1.68426-.72544.34199-1.6019.26528-2.169-.30181l-.83046-.83046c-.78105-.78105-2.04738-.78105-2.82843 0l-.66551.66551c-.78105.78105-.78105 2.04738 0 2.82843l1.27498 1.27497c.44985.44985.55469 1.12636.33911 1.72488-.23598.6552-.82891 1.1508-1.5253 1.1508H2c-1.104568 0-2 .8954-2 2v.9412c0 1.1046.895431 2 2 2h2.3328c.6284 0 1.17624.4161 1.43341.9894.27121.6047.1905 1.3235-.2781 1.7921L3.8848 20.8554c-.78105.781-.78105 2.0473 0 2.8284l.66551.6655c.78105.781 2.04738.781 2.82843 0l1.8038-1.8038c.39083-.3908.98666-.4697 1.49446-.2515.4961.2131.8524.6848.8524 1.2247V26c0 1.1046.8954 2 2 2h.9412c1.1046 0 2-.8954 2-2v-1.9736c0-.6964.4956-1.2893 1.1508-1.5253.5985-.2156 1.275-.1107 1.7249.3391l1.5091 1.5091c.781.7811 2.0473.7811 2.8284 0l.6655-.6655c.7811-.7811.7811-2.0474 0-2.8284l-1.0646-1.0646c-.5671-.5671-.6438-1.4436-.3018-2.169.3128-.6635.9508-1.1512 1.6843-1.1512H26c1.1046 0 2-.8954 2-2v-.9412c0-1.1046-.8954-2-2-2h-.9518c-.8122 0-1.5021-.5806-1.7935-1.3387-.2769-.7202-.17-1.5474.3756-2.09299l.719-.71897c.7811-.78105.7811-2.04738 0-2.82843l-.6655-.66551c-.7811-.78105-2.0474-.78105-2.8284 0l-.5186.51853c-.6221.62213-1.5714.72592-2.3875.3971-.8338-.33598-1.4787-1.09816-1.4787-1.99714V2c0-1.104569-.8954-2-2-2h-.9412Zm.8824 19.7647c3.4111 0 6.1764-2.7653 6.1764-6.1765 0-3.4111-2.7653-6.17644-6.1764-6.17644-3.4112 0-6.17651 2.76534-6.17651 6.17644 0 3.4112 2.76531 6.1765 6.17651 6.1765Z" clip-rule="evenodd"/>
</svg>

<svg width="28" height="28" viewBox="0 0 28 28" fill="none" xmlns="http://www.w3.org/2000/svg">
<path fill-rule="evenodd" clip-rule="evenodd" d="M13.5294 0C12.4248 0 11.5294 0.89543 11.5294 2V3.33282C11.5294 4.06633 11.0417 4.70431 10.3782 5.01708C9.65276 5.35907 8.7763 5.28236 8.2092 4.71527L7.37874 3.88481C6.59769 3.10376 5.33136 3.10376 4.55031 3.88481L3.8848 4.55032C3.10375 5.33137 3.10375 6.5977 3.8848 7.37875L5.15978 8.65372C5.60963 9.10357 5.71447 9.78008 5.49889 10.3786C5.26291 11.0338 4.66998 11.5294 3.97359 11.5294H2C0.895432 11.5294 0 12.4248 0 13.5294V14.4706C0 15.5752 0.895431 16.4706 2 16.4706H4.3328C4.9612 16.4706 5.50904 16.8867 5.76621 17.46C6.03742 18.0647 5.95671 18.7835 5.48811 19.2521L3.8848 20.8554C3.10375 21.6364 3.10375 22.9027 3.8848 23.6838L4.55031 24.3493C5.33136 25.1303 6.59769 25.1303 7.37874 24.3493L9.18254 22.5455C9.57337 22.1547 10.1692 22.0758 10.677 22.294C11.1731 22.5071 11.5294 22.9788 11.5294 23.5187V26C11.5294 27.1046 12.4248 28 13.5294 28H14.4706C15.5752 28 16.4706 27.1046 16.4706 26V24.0264C16.4706 23.33 16.9662 22.7371 17.6214 22.5011C18.2199 22.2855 18.8964 22.3904 19.3463 22.8402L20.8554 24.3493C21.6364 25.1304 22.9027 25.1304 23.6838 24.3493L24.3493 23.6838C25.1304 22.9027 25.1304 21.6364 24.3493 20.8554L23.2847 19.7908C22.7176 19.2237 22.6409 18.3472 22.9829 17.6218C23.2957 16.9583 23.9337 16.4706 24.6672 16.4706H26C27.1046 16.4706 28 15.5752 28 14.4706V13.5294C28 12.4248 27.1046 11.5294 26 11.5294H25.0482C24.236 11.5294 23.5461 10.9488 23.2547 10.1907C22.9778 9.4705 23.0847 8.6433 23.6303 8.09771L24.3493 7.37874C25.1304 6.59769 25.1304 5.33136 24.3493 4.55031L23.6838 3.8848C22.9027 3.10375 21.6364 3.10375 20.8554 3.8848L20.3368 4.40333C19.7147 5.02546 18.7654 5.12925 17.9493 4.80043C17.1155 4.46445 16.4706 3.70227 16.4706 2.80329V2C16.4706 0.895431 15.5752 0 14.4706 0H13.5294ZM14.4118 19.7647C17.8229 19.7647 20.5882 16.9994 20.5882 13.5882C20.5882 10.1771 17.8229 7.41176 14.4118 7.41176C11.0006 7.41176 8.23529 10.1771 8.23529 13.5882C8.23529 16.9994 11.0006 19.7647 14.4118 19.7647Z" fill="#2A2238"/>
</svg>
